X:1
T:E minor           Amos Pilsbury, 1799
T:Anonymous Author, Not found in other sources                  86. 558.
T:Edson
T:Transcribed from  The United States Sacred Harmony, 1799.
%%score [ 1 2 3 4 ]
L:1/8
Q:1/4=80
M:3/4
K:G
V:1 treble nm="Tr." snm="Tr."
V:2 treble nm="C." snm="C."
V:3 treble-8 nm="T." snm="T."
V:4 bass nm="B." snm="B."
V:1
"^O   Je    –  sus.   Savior   of ______  my    soul, To  thee,  to   thee _____  I       cry;     My  spi  –   rit's  op–pressed, Still pant for that rest" B2 | %1
 B4 G>A | B4 e2 | g>fed B2 | B4 B2 | (B2 e2) d2 | B>cBA GA | B6 | z e e4 | B2 d4 | d2 A3 B | %11
 cd B4 | %12
"^En–joyed  by  the    saints   in      the   sky, ____________  En  –  joyed  by   the  saints  in    the  sky." c2 d>c B2 | %13
 e2 B>A G2 | Gc (B4 | B6) | B2 e3 f | ge dc B2 | B2 B4- | B4 |] %20
V:2
"^O   Je    –  sus.     Savior  of ______  my    soul, To  thee,  to  thee  ____  I         cry;    My  spi   –   rit's  op–pressed, Still pant for that rest" E2 | %1
 E4 E2 | E4 G2 | B>AGF E^D | E4 G2 | G4 G2 | (G2 D2) C2 | B,6 | E2 G4 | BG A4 | B>G E3 D | EF G4 | %12
 z6 | %13
"^En –  joyed   by    the  saints   in      the   sky,    En –  joyed  by   the  saints   in    the  sky." G2 G2 G2 | %14
 E2 B3 A | cA B4 | B2 G3 F | E2 F2 E2 | ^D2 E4- | E4 |] %20
V:3
"^O   Je    –  sus.    Savior  of ______  my    soul, To   thee,  to   thee ____   I      cry;     My spirit's  oppressed, Still   pant  for   that     rest" B2 | %1
 (G2 F2) E2 | B4 B2 | e>fgf e^d | e4 e2 | (B2 A2) G2 | d>edc BA | B6 | B2 B3 A | G2 A4 | B2 c3 B | %11
 A2 B4 | z6 | %13
"^En –  joyed   by    the  saints   in      the   sky,    En –  joyed  by   the  saints   in    the  sky." B>c d2 c2 | %14
 B2 e3 f | ^d2 e4 | ed/c/ B3 A | G2 A2 G2 | F2 E4- | E4 |] %20
V:4
 E,2 | E,4 B,2 | E,4 E,2 | (G,>A, B,2) B,,2 | E,4 E,2 | E,4 B,2 | G,>A,G,F, E,2 | B,,6 | %8
"^My   spi   –   rit's  oppressed,  Still  pant for that rest" B,,2 [B,,E,]4 | [G,,G,]2 D,4 | %10
 G,2 E,3 D, | E,F, G,4 | %12
"^En–joyed  by  the  saints    in     the    sky, ____________  En  – joyed   by   the  saints   in    the   sky." E,2 D,>C, B,,2 | %13
 B,,2"^________________________________________________________________________________________________\nEdited by B. C. Johnston, 2018.\n   1. Re-barred from measure 8 to end, to eliminate \nfermata\n in measures 8 & 16.\n   2. Measure 12, \nTreble\n: first note, quarter-note on C, replaced with two eighth-notes C & D, to match meter of words.\n   3. Measure 12, \nBass\n: second note changed from B to G.\n   4.Measure 13, \nTreble\n: second note from B to C.\n   5. Measure 14: last note changed from F to G in \nCounter\n, and A to G  in \nBass\n.\n   6. Measure 14, \nTenor\n: grace sixteenth-note following converted to a normal sixteenth-note. \n   7. Measure 15, \nTreble\n: grace eighth-note following converted to normal eighth-note.\n   8. Measure 17, Tenor: grace sixteenth-notes following converted to normal sixteenth-notes, and changed from F-G to D-C." G,2 G,2 | %14
 B,2 E,4- | E,6 | E,2 E,3 F, | G,2 A,2 B,2 | B,,2 E,4- | E,4 |] %20

